Mono Glyph Icons/misc/misc-unfilled/browse.svg

<svg height="48" viewBox="0 -960 960 960" width="48" xmlns="http://www.w3.org/2000/svg"><path d="m95-425v-357q0-33.9 24.76-58.95 24.75-25.05 58.24-25.05h278v441zm409-441h278q33.9 0 58.95 25.05 25.05 25.05 25.05 58.95v198h-362zm0 771v-440h362v357q0 33.49-25.05 58.24-25.05 24.76-58.95 24.76zm-409-281h361v281h-278q-33.49 0-58.24-24.76-24.76-24.75-24.76-58.24zm83-132h195v-274h-195zm409-158h195v-116h-195zm0 214v274h195v-274zm-409 158v116h195v-116z"/></svg>

<svg xmlns="http://www.w3.org/2000/svg" height="48" viewBox="0 -960 960 960" width="48"><path d="M95-425v-357q0-33.9 24.76-58.95Q144.51-866 178-866h278v441H95Zm278-83Zm131-358h278q33.9 0 58.95 25.05Q866-815.9 866-782v198H504v-282Zm0 771v-440h362v357q0 33.49-25.05 58.24Q815.9-95 782-95H504ZM95-376h361v281H178q-33.49 0-58.24-24.76Q95-144.51 95-178v-198Zm278 82Zm214-372Zm0 214Zm-409-56h195v-274H178v274Zm409-158h195v-116H587v116Zm0 214v274h195v-274H587ZM178-294v116h195v-116H178Z"/></svg>
